X:1
T:Title
%%score { ( 1 4 5 ) | ( 2 3 ) }
L:1/8
Q:1/4=100
M:4/4
K:Bb
V:1 treble nm="Grand Piano"
V:4 treble 
V:5 treble 
V:2 bass 
V:3 bass 
V:1
 B2- (3BAG F2 F2 | G2- (3GFE D2 D2 | C>D E>F G2 [CEA]>[CEA] | [B,DB]6 z2 | d2- (3dcB A2 A2 | %5
w: J.~Lincoln~Hall * * * * *|||||
 c2- (3cBA G2 G2 | [Fc]2 [Fc]>[Fc] [=Ed]2 [Ec]>[Ec] | [Ec]4 _d4 | [Fd]2 [Fd]>d [=E_d]2 [F=d]>e | %9
w: ||||
 [Fd]4 [DB]4 | [GB]2 [FA]B [Ac]B[FA]G | [DF]6 z2 | [Fd]2 [Fd]>d [=E_d]2 [F=d]>e | [Fd]4 [DB]4 | %14
w: |||||
 [=Ed]2 [Ec]>[EG] [Ed]2 [Ec]>[EG] | A4 G2 F2 | B2- (3BAG F2 F2 | G2- (3GFE D2 D2 | C>D E>F G2 A>A | %19
w: |||||
 [DB]6 z2 | .d4 z4 | .=e4 z4 | [Gf]2 [Ge]>[Ge] d2 c>c | [DB]6 z2 |] %24
w: |||||
V:2
 B,2- (3B,A,G, F,2 F,2 | G,2- (3G,F,E, D,2 D,2 | C,>D, E,>F, G,2 F,>F, | B,,6 z2 | %4
 D2- (3DCB, A,2 A,2 | C2- (3C[K:bass]B,A, G,2 G,2 | [C,A,]2 [C,A,]>[C,A,] [C,B,]2 [C,B,]>[C,B,] | %7
 [F,A,]4 =E4 | B,,2 z z/ F/ B,,2 z z/ G/ | B,,2 F,2 B,,2 F,2 | E,2 z[K:treble] G z G z E | %11
 B,,2 F,2 B,,2 F,2 | B,,2 z z/ F/ B,,2 z z/ G/ | B,,2 F,2 B,,2 F,2 | %14
 [C,B,]2 [C,B,]>[C,B,] [C,G,]2 [C,C]>[C,C] | C4 z4 | B,2- (3B,A,G, F,2 F,2 | %17
 G,2- (3G,F,E, D,2 D,2 | C,>D, E,>F, G,2 [F,CE]>[F,CE] | [B,,B,]6 z2 | %20
 [_A,DF]2 (3:2:2[A,D]2 [A,DF] [G,B,G]2 [G,EG]2 | [^F,_D]2 [F,D]2 [=F,=D]2 [F,D]2 | %22
 [E,C]2 [E,C]>[E,C] [F,B,F]2 [F,A,E]>[F,A,E] | [B,,B,]6 z2 |] %24
V:3
 x8 | x8 | x8 | x8 | x8 | x8/3[K:bass] x16/3 | x8 | x8 | z2 [F,B,]2 z2 [F,B,]2 | x8 | %10
 z2 B,2[K:treble] E,2 B,2 | x8 | z2 [F,B,]2 z2 [F,B,]2 | x8 | x8 | [F,E]4- [F,-B,E-]2 [F,A,E]2 | %16
 x8 | x8 | x8 | x8 | x8 | x8 | x8 | x8 |] %24
V:4
 x8 | x8 | x8 | x8 | x8 | x8 | x8 | x8 | x8 | z2 B,2 z2 B,2 | x8 | z2 B,2 z2 B,2 | x8 | %13
 z2 B,2 z2 B,2 | x8 | x8 | x8 | x8 | x8 | x8 | z2 (3F-[Fc]B e2 e2 | B2 (3z d=e [Bf]2 [Bf]2 | x8 | %23
 x8 |] %24
V:5
 x8 | x8 | x8 | x8 | x8 | x8 | x8 | x8 | x8 | x8 | x8 | x8 | x8 | x8 | x8 | x8 | x8 | x8 | x8 | %19
 x8 | x8 | z2 B2 z4 | x8 | x8 |] %24

